archdroid-icon-theme/Archdroid-Teal/apps/scalable/preferences-system-firewall.svg

<svg xmlns="http://www.w3.org/2000/svg" fill="#009688" viewBox="0 0 48 48"><path d="m26 16v16h-4v-16h4m9.54-5.04l-3.08 2.55 8.7 10.49-8.7 10.48 3.08 2.55 10.82-13.03-10.82-13.04m-5.54 11.04v4h4v-4h-4zm-16 0v4h4v-4h-4m1.54-8.48l-3.08-2.55-10.82 13.03 10.82 13.04 3.08-2.55-8.7-10.49 8.7-10.48"/></svg>

<?xml version="1.0" encoding="UTF-8" standalone="no"?>
<svg
   xmlns:dc="http://purl.org/dc/elements/1.1/"
   xmlns:cc="http://creativecommons.org/ns#"
   xmlns:rdf="http://www.w3.org/1999/02/22-rdf-syntax-ns#"
   xmlns:svg="http://www.w3.org/2000/svg"
   xmlns="http://www.w3.org/2000/svg"
   xmlns:sodipodi="http://sodipodi.sourceforge.net/DTD/sodipodi-0.dtd"
   xmlns:inkscape="http://www.inkscape.org/namespaces/inkscape"
   fill="#009688"
   width="48"
   height="48"
   viewBox="0 0 48 48"
   id="svg2"
   version="1.1"
   inkscape:version="0.91 r13725"
   sodipodi:docname="preferences-system-firewall.svg">
  <metadata
     id="metadata10">
    <rdf:RDF>
      <cc:Work
         rdf:about="">
        <dc:format>image/svg+xml</dc:format>
        <dc:type
           rdf:resource="http://purl.org/dc/dcmitype/StillImage" />
      </cc:Work>
    </rdf:RDF>
  </metadata>
  <defs
     id="defs8" />
  <sodipodi:namedview
     pagecolor="#ffffff"
     bordercolor="#666666"
     borderopacity="1"
     objecttolerance="10"
     gridtolerance="10"
     guidetolerance="10"
     inkscape:pageopacity="0"
     inkscape:pageshadow="2"
     inkscape:window-width="1366"
     inkscape:window-height="713"
     id="namedview6"
     showgrid="false"
     inkscape:snap-bbox="true"
     inkscape:bbox-nodes="true"
     inkscape:zoom="3.199383580048609"
     inkscape:cx="-16.03006599596912"
     inkscape:cy="44.45168884854309"
     inkscape:window-x="0"
     inkscape:window-y="30"
     inkscape:window-maximized="1"
     inkscape:current-layer="svg2" />
  <path
     id="path4218"
     style="fill:#009688"
     d="m 26,16 0,16 -4,0 0,-16 4,0 z M 35.54,10.96 32.46,13.51 41.16,24 32.46,34.48000000000001 35.53999999999999,37.03 46.36,24 35.54,10.96 Z M 30,22 l 0,4 4,0 0,-4 -4,0 z m -16,0 0,4 4,0 0,-4 -4,0 z M 15.54,13.52 12.46,10.97 1.64,24 12.46,37.04 15.54,34.49 6.84,24 15.54,13.52 Z" />
</svg>
